Catalina-light/actions/22/view-certificate-add.svg

<?xml version="1.0" encoding="UTF-8" standalone="no"?>
<svg
   xmlns:dc="http://purl.org/dc/elements/1.1/"
   xmlns:cc="http://creativecommons.org/ns#"
   xmlns:rdf="http://www.w3.org/1999/02/22-rdf-syntax-ns#"
   xmlns:svg="http://www.w3.org/2000/svg"
   xmlns="http://www.w3.org/2000/svg"
   xmlns:sodipodi="http://sodipodi.sourceforge.net/DTD/sodipodi-0.dtd"
   xmlns:inkscape="http://www.inkscape.org/namespaces/inkscape"
   viewBox="0 0 22 22"
   id="svg3197"
   version="1.1"
   inkscape:version="0.91 r13725"
   sodipodi:docname="view-certificate-add.svg">
  <metadata
     id="metadata3205">
    <rdf:RDF>
      <cc:Work
         rdf:about="">
        <dc:format>image/svg+xml</dc:format>
        <dc:type
           rdf:resource="http://purl.org/dc/dcmitype/StillImage" />
      </cc:Work>
    </rdf:RDF>
  </metadata>
  <sodipodi:namedview
     pagecolor="#ffffff"
     bordercolor="#666666"
     borderopacity="1"
     objecttolerance="10"
     gridtolerance="10"
     guidetolerance="10"
     inkscape:pageopacity="0"
     inkscape:pageshadow="2"
     inkscape:window-width="640"
     inkscape:window-height="480"
     id="namedview3203"
     showgrid="false"
     inkscape:zoom="28.954545"
     inkscape:cx="4.8524333"
     inkscape:cy="11"
     inkscape:current-layer="svg3197" />
  <defs
     id="defs3051">
    <style
       type="text/css"
       id="current-color-scheme">
      .ColorScheme-Text {
        color:#4d4d4d
      }
      </style>
  </defs>
  <path
     style="color:#4d4d4d;fill:currentColor;fill-opacity:1;stroke:none"
     class="ColorScheme-Text"
     d="M 3.56744,4.2 C 3.252672,4.2 3,4.469424 3,4.80312 L 3,16.396872 C 3,16.730576 3.252672,17 3.56744,17 l 14.865144,0 C 18.747336,17 19,16.730576 19,16.396872 L 19,4.80312 C 19,4.469424 18.747336,4.2 18.432584,4.2 L 3.56744,4.2 Z m 5.46648,3.559376 c 0.919488,0 1.66248,0.789248 1.66248,1.764056 0,0.974816 -0.742992,1.762504 -1.66248,1.762504 -0.2152,0 -0.410504,-0.04088 -0.5866,-0.103128 l -0.87988,0.932816 -0.588064,0 0,0.621872 -0.586576,0 0,0.62188 -0.97864,0 0,-1.035944 2.05452,-2.17812 C 7.40996,9.937904 7.371408,9.73084 7.371408,9.523432 c 0,-0.974808 0.743,-1.764056 1.662496,-1.764056 z M 13.868104,8.2 l 0.906416,0 0,1.920312 1.811344,0 0,0.959376 -1.811344,0 0,1.920312 -0.906416,0 0,-1.920312 -1.809888,0 0,-0.959376 1.809888,0 0,-1.920312 z M 9.523216,8.382808 c -0.332592,0 -0.586592,0.26928 -0.586592,0.62188 0,0.352592 0.254,0.621872 0.586592,0.621872 0.332584,0 0.586584,-0.26928 0.586584,-0.621872 0,-0.3526 -0.254,-0.62188 -0.586584,-0.62188 z"
     id="path3201"
     inkscape:connector-curvature="0" />
</svg>

<svg version="1.1" viewBox="0 0 22 22" xmlns="http://www.w3.org/2000/svg">
<defs>
<style id="current-color-scheme" type="text/css">.ColorScheme-Text {
        color:#4d4d4d
      }</style>
</defs>
<path class="ColorScheme-Text" d="m3.5674 4.2c-0.31477 0-0.56744 0.26942-0.56744 0.60312v11.594c0 0.3337 0.25267 0.60313 0.56744 0.60313h14.865c0.31475 0 0.56742-0.26942 0.56742-0.60313v-11.594c0-0.3337-0.25266-0.60312-0.56742-0.60312h-14.865zm5.4665 3.5594c0.91949 0 1.6625 0.78925 1.6625 1.7641 0 0.97482-0.74299 1.7625-1.6625 1.7625-0.2152 0-0.4105-0.04088-0.5866-0.10313l-0.87988 0.93282h-0.58806v0.62187h-0.58658v0.62188h-0.97864v-1.0359l2.0545-2.1781c-0.05872-0.20741-0.097272-0.41447-0.097272-0.62188 0-0.97481 0.743-1.7641 1.6625-1.7641zm4.8342 0.44062h0.90642v1.9203h1.8113v0.95938h-1.8113v1.9203h-0.90642v-1.9203h-1.8099v-0.95938h1.8099v-1.9203zm-4.3449 0.18281c-0.33259 0-0.58659 0.26928-0.58659 0.62188 0 0.35259 0.254 0.62187 0.58659 0.62187 0.33258 0 0.58658-0.26928 0.58658-0.62187 0-0.3526-0.254-0.62188-0.58658-0.62188z" color="#4d4d4d" fill="currentColor"/>
</svg>
